!!!COM: Charles Gounod
!!!CNT: Francais
!!!TXO: Francais
!!!OTL: L'a^me de la Morte
!!!LYR: The/odore de Banville
!!!ENC: Jacob Pegg
!!!YOR: Romantic French Song 1830-1870 -David Tunley, ed.,
!!!YOR: New York: Garland Publishing, Inc., 1995, Vol. 5
!!!ODT: 1860/
!!NB: Vocal melody and text only encoded.
!!NB: First instance of melodic material only encoded.
**kern	**silbe
*clef G2	*
*k[b-e-]	*
*M9/8	*
*MM76	*
!!created: 5/28/03 15:50
!!proofed and posted: 5/28/03 16:24
!!edit time: 33 min.
=4	=4
4r	.
8r	.
4r	.
8r	.
{4g	{Ils
8g	se
=5	=5
[4.dd	di-
(8dd]	|
8cc)	|
8b-	-sent,
(8a	ma
8b-)	|
8cc	co-
=6	=6
4.b-	-lom-
8g}	-be,}
8r	.
8r	.
{(8a-	{Que
8b-)	|
8a-	tu
=7	=7
4.g	re^-
4d}	-ves,}
8r	.
{(8e-	{mor-
8f)	-te
8e-	en-
=8	=8
4.d	-co-
4a}	-re,}
8r	.
{4d	{Sous
8dd	la
=9	=9
[4.dd	pier-
(8dd]	|
8cc)	|
8b-	-re
(8a	d'u-
8b-)	|
8cc	-ne
=10	=10
4.b-	tom-
4g}	-be:}
8r	.
{4g	{Non,
8g	tu
=11	=11
[4.f	vis,
(8f]	|
8g)	|
8a	que
(8g	je
8f)	|
8en	t'a-
=12	=12
4.f	-do-
4d}	-re!}
8r	.
{4dd	{Tu
8dd	t'e/-
=13	=13
(4cc	-veil-
8a)	|
4.f	-les
(8dd	ra-
8cc)	|
8b-	-ni-
=14	=14
(4cc	-me/-
8dd)	|
4cc}	-e,}
8r	.
{4b-	{O^
8b-	pen-
=15	=15
(4a	-si-
8f#)	|
4.d	-ve
(8b-	bien~
8a)	|
8g	~ai-
=16	=16
(4a	-me/-
8b-)	|
4a}	-e!}
8r	.
{4dd	{O^
8dd	pen-
=17	=17
[4.dd	-si-
(8dd]	|
8cc)	|
8b-	-ve
(8a	bien~
8b-)	|
8cc	~ai-
=18	=18
(2.b-	-me/-
4.a)	|
=19	=19
4g}	-e!}
8r	.
4r	.
8r	.
4r	.
8r	.
*-	*-
